img/smartphone.svg

<svg width="470" height="470" xmlns="http://www.w3.org/2000/svg">

 <g>
  <title>background</title>
  <rect fill="none" id="canvas_background" height="402" width="582" y="-1" x="-1"/>
 </g>
 <g>
  <title>Layer 1</title>
  <rect stroke="#000" id="svg_22" height="261.000004" width="258" y="105" x="107.5" stroke-width="1.5" fill="#A8FFE9"/>
  <ellipse ry="9" rx="8.5" id="svg_23" cy="419" cx="235" fill-opacity="null" stroke-opacity="null" stroke-width="1.5" stroke="#000" fill="#A8FFE9"/>
  <g id="svg_1">
   <g id="svg_2">
    <g id="svg_3">
     <path id="svg_4" d="m340,0l-210,0c-20.678,0 -37.5,16.823 -37.5,37.5l0,395c0,20.677 16.822,37.5 37.5,37.5l210,0c20.678,0 37.5,-16.823 37.5,-37.5l0,-395c0,-20.677 -16.822,-37.5 -37.5,-37.5zm22.5,365l-32.5,0c-4.142,0 -7.5,3.358 -7.5,7.5c0,4.142 3.358,7.5 7.5,7.5l32.5,0l0,52.5c0,12.406 -10.093,22.5 -22.5,22.5l-210,0c-12.407,0 -22.5,-10.094 -22.5,-22.5l0,-52.5l192.5,0c4.142,0 7.5,-3.358 7.5,-7.5c0,-4.142 -3.358,-7.5 -7.5,-7.5l-192.5,0l0,-260l255,0l0,260zm0,-275l-255,0l0,-52.5c0,-12.406 10.093,-22.5 22.5,-22.5l210,0c12.407,0 22.5,10.094 22.5,22.5l0,52.5z"/>
     <path id="svg_5" d="m235,395c-12.407,0 -22.5,10.094 -22.5,22.5s10.093,22.5 22.5,22.5s22.5,-10.094 22.5,-22.5s-10.093,-22.5 -22.5,-22.5zm0,30c-4.136,0 -7.5,-3.365 -7.5,-7.5s3.364,-7.5 7.5,-7.5s7.5,3.365 7.5,7.5s-3.364,7.5 -7.5,7.5z"/>
     <path id="svg_6" d="m265,45l-60,0c-4.142,0 -7.5,3.358 -7.5,7.5c0,4.142 3.358,7.5 7.5,7.5l60,0c4.142,0 7.5,-3.358 7.5,-7.5c0,-4.142 -3.358,-7.5 -7.5,-7.5z"/>
    </g>
   </g>
  </g>
  <g id="svg_7"/>
  <g id="svg_8"/>
  <g id="svg_9"/>
  <g id="svg_10"/>
  <g id="svg_11"/>
  <g id="svg_12"/>
  <g id="svg_13"/>
  <g id="svg_14"/>
  <g id="svg_15"/>
  <g id="svg_16"/>
  <g id="svg_17"/>
  <g id="svg_18"/>
  <g id="svg_19"/>
  <g id="svg_20"/>
  <g id="svg_21"/>
 </g>
</svg>

<?xml version="1.0" encoding="iso-8859-1"?>
<!-- Generator: Adobe Illustrator 19.0.0, SVG Export Plug-In . SVG Version: 6.00 Build 0)  -->
<svg version="1.1" id="Layer_1" xmlns="http://www.w3.org/2000/svg" xmlns:xlink="http://www.w3.org/1999/xlink" x="0px" y="0px"
	 viewBox="0 0 470 470" style="enable-background:new 0 0 470 470;" xml:space="preserve">
<g>
	<g>
		<g>
			<path d="M340,0H130c-20.678,0-37.5,16.823-37.5,37.5v395c0,20.677,16.822,37.5,37.5,37.5h210c20.678,0,37.5-16.823,37.5-37.5
				v-395C377.5,16.823,360.678,0,340,0z M362.5,365H330c-4.142,0-7.5,3.358-7.5,7.5c0,4.142,3.358,7.5,7.5,7.5h32.5v52.5
				c0,12.406-10.093,22.5-22.5,22.5H130c-12.407,0-22.5-10.094-22.5-22.5V380H300c4.142,0,7.5-3.358,7.5-7.5
				c0-4.142-3.358-7.5-7.5-7.5H107.5V105h255V365z M362.5,90h-255V37.5c0-12.406,10.093-22.5,22.5-22.5h210
				c12.407,0,22.5,10.094,22.5,22.5V90z"/>
			<path d="M235,395c-12.407,0-22.5,10.094-22.5,22.5S222.593,440,235,440s22.5-10.094,22.5-22.5S247.407,395,235,395z M235,425
				c-4.136,0-7.5-3.365-7.5-7.5s3.364-7.5,7.5-7.5s7.5,3.365,7.5,7.5S239.136,425,235,425z"/>
			<path d="M265,45h-60c-4.142,0-7.5,3.358-7.5,7.5c0,4.142,3.358,7.5,7.5,7.5h60c4.142,0,7.5-3.358,7.5-7.5
				C272.5,48.358,269.142,45,265,45z"/>
		</g>
	</g>
</g>
<g>
</g>
<g>
</g>
<g>
</g>
<g>
</g>
<g>
</g>
<g>
</g>
<g>
</g>
<g>
</g>
<g>
</g>
<g>
</g>
<g>
</g>
<g>
</g>
<g>
</g>
<g>
</g>
<g>
</g>
</svg>
